X: 10444
T: Donegal Liam's
R: barndance
M: 4/4
K: Dmajor
|:CDAB F2 F/E/D|E3 F E-E//F//E/ DA,|A,B,2 D A,DAB|F E4-E E//F//E/D|
CDAB F2 F/E/D|E3 F E-E//F//E/ DA,|A,B,2 D A,F F/E/D|D8:|
cdad cdAD|B-B//c//B/ AA- A4|cdad cdAD|B d2 c/B/ c3 d|
cdad cdAD|B-B//c//B/ AA- A F E//F//E/D|A,B,2 D A,F F/E/D|D8|
cdad cdAD|B-B//c//B/ AA- A4|cdad cdAe|f a2 g/f/ e3 d|
cdad cdAD|B-B//c//B/ AA- A F E//F//E/D|A,B,2 D A,F F/E/D|D8||

